X:1
T:Villains
T:Villains
T:Taz Graduation
%%score { 1 | ( 2 3 4 ) }
L:1/8
Q:1/4=123
M:3/4
K:F
V:1 treble nm="Piano" snm="Pno."
V:2 bass 
V:3 bass 
V:4 bass 
V:1
"^\n\n" z6 | A,4 D2- | D2 A4- | A6- | A4 G2- | G6- | G6 | A,4 D2- | D2 A4- | A6- | A4 G2- | G6- | %12
 G6 | D2 E2 D2 | _E2 D2 =E2 | D2 F4- | F6- | F4 z2 | z6 | D2 E2 D2 | _E2 D2 =E2 | D2 F4- | F6 | %23
 D2 F2 [_DEA]2- | [DEA]6 | [EG]6 | D2 E2 D2 | _E2 D2 =E2 | D2 z2[Q:1/4=80] FD | FD FD FD | %30
 FD FD FD | FD FD FD | FD FD FD | FD FD FD | FD FD FD | FD FD FD | E_D ED ED | z6 | z6 | z6 | z6 | %41
 z6 | z6 | z6 | z6 | z6 | z6 | z6 | z6 | z6 | z6 | z6 | z6 | z6 | z6 | z6 | z6 | z6 | z6 | z6 | %60
 z6 | z6 | z6 | z6 | z6 | z6 | z6 |] %67
V:2
 [D,,D,]6 | [E,,E,]4 D,2- | D,2 [_E,,B,,_E,]4- | [E,,B,,E,]6- | [E,,B,,E,]4 G,2- | G,6 | [D,,D,]6 | %7
 [E,,E,]4 D,2- | D,2 [_E,,B,,_E,]4- | [E,,B,,E,]6- | [E,,B,,E,]4 G,2- | G,6- | G,6 | z2 z2 z2 | %14
 A,4 [E,B,]2 | A,2 A,4- | A,6- | A,4 B,,,2- | B,,,6- | B,,,6 | A,4 [E,B,]2 | A,2 A,4- | A,6 | %23
 z2 [_A,,_A,]2 [=A,,=A,]2- | [A,,A,]6 | [G,,G,]6- | [G,,G,]6 | A,4 [E,B,]2 | A,2 [A,-F]4 | %29
 A,2 [D,,D,]2 [E,,E,]2 | [F,,F,]4 z A,,- | A,,B,,- B,,4- | B,,3 z ^C,2 | D,2 E,2 [F,,F,]2- | %34
 [F,,F,]2 z4 | z2 z2 F,2 | [A,,E,]4 z2 | z6 | z6 | z6 | z6 | z6 | z6 | z6 | z6 | z6 | z6 | z6 | %48
 z6 | z6 | z6 | z6 | z6 | z6 | z6 | z6 | z6 | z6 | z6 | z6 | z6 | z6 | z6 | z6 | z6 | z6 | z6 |] %67
V:3
 x6 | x6 | x6 | x6 | x6 | x6 | x6 | x6 | x6 | x6 | x6 | x6 | x6 | x6 | x6 | E,,6- | E,,6- | %17
 E,,4 z2 | z6 | x6 | x6 | E,,6- | E,,6- | E,,4 x2 | x6 | x6 | x6 | x6 | E,,6- | E,,2 z4 | z4 x2 | %31
 x6 | x6 | x6 | x6 | x6 | x6 | x6 | x6 | x6 | x6 | x6 | x6 | x6 | x6 | x6 | x6 | x6 | x6 | x6 | %50
 x6 | x6 | x6 | x6 | x6 | x6 | x6 | x6 | x6 | x6 | x6 | x6 | x6 | x6 | x6 | x6 | x6 |] %67
V:4
 x6 | x6 | x6 | x6 | x6 | x6 | x6 | x6 | x6 | x6 | x6 | x6 | x6 | x6 | x6 | E,,6 | x6 | x6 | x6 | %19
 x6 | x6 | E,,6 | x6 | x6 | x6 | x6 | x6 | x6 | E,,6 | x6 | x6 | x6 | x6 | x6 | x6 | x6 | x6 | x6 | %38
 x6 | x6 | x6 | x6 | x6 | x6 | x6 | x6 | x6 | x6 | x6 | x6 | x6 | x6 | x6 | x6 | x6 | x6 | x6 | %57
 x6 | x6 | x6 | x6 | x6 | x6 | x6 | x6 | x6 | x6 |] %67

